X: 30207
T: Old Grey Goose, The
R: jig
M: 6/8
K: Eminor
|:B|efe fdB|def g2 a|fdd add|fag fed|
gfg efe|dfe ggg|edB BAF|GDD D2:|

